X: 181794
T: Riley's
T: R\'il U\'i Raghallaigh
S: B.Breathnach:"Ceol Rince na hEireann" IV/182
Z: B.Black
L: 1/8
M: 4/4
R: reel
K: Edor
A|BEED GABd|dBAG FADA|BEED GBeg|fedf edBA|
BEED GABd|dBAG FADA|BEED GBeg|fedf e3 ||
f|eBef gbeg|fdad bdad|eBef gbeg|fedf e2 ef|
eBef gbeg|fdad bdad|efga bgaf|gfed Bged ||
